X:1
T:Benedicta et venerabilis
T:Costanzo Porta
T:Beati estis cum maledixerunt
C:Costanzo Porta
%%score [ 1 2 3 4 ]
L:1/8
Q:1/4=176
M:2/2
K:F
V:1 alto nm="Cantus" snm="C"
V:2 alto nm="Altus" snm="A"
V:3 alto nm="Tenor" snm="T"
V:4 bass3 nm="Bassus" snm="B"
V:1
 x8 | x8 |[M:4/2][K:treble-8] B8 d8- | d4 d4 f8 | f8 z4 f4 | d2 e2 f2 e2 d2 c2 B4- | B4 A4 d4 B4 | %7
w: ||Be- a-|* ti e-|stis cum|ma- * * * * * *|* le- di- xe-|
 A4 A8 d4 | c6 c2 B8- | B8 z8 | z8 z4 f4 | d2 e2 f2 e2 d2 c2 B2 A2 | B4 A4 A4 F4 | f8 f4 e4 | %14
w: rint vo- bis|ho- mi- nes|_|et|per- * * * * * * *|* se- cu- ti|vos fu- e-|
 f8 z8 | z8 z4 d4 | B2 c2 d2 B2 c2 B2 A2 G2 | F4 F4 f2 e2 d2 c2 | B4 G4 c8- | c4 F6 G2 A2 B2 | %20
w: rint,|et|per- * * * * * * *|* se- cu- * * *|* ti vos|_ fu- * * *|
 c2 A2 d6 c2 d2 e2 | f4 f4 d8 | z16 | z8 B8 | c6 c2 d4 B4- | B4 A2 G2 A4 B4 | G8 F4 f4 | f4 f4 g8 | %28
w: |* e- rint||et|di- xe- rint om-|* * * * ne|ma- lum ad-|ver- sum vos,|
 z16 | z16 | z16 | z16 | z4 B8 A4 | B2 c2 d2 e2 f4 g4 | f12 c4 | d4 f6 ed c4- | c4 d4 f8- | f8 z8 | %38
w: ||||men- ti-|en- * * * * tes|pro- pter|me, pro- * * *|* pter me,|_|
[M:3/2][Q:1/4=264] f4 f8 | f4 d4 c4 | B4 G6 A2 | B8 A4 | B8 z4 | B4 B8 | A4 B4 F4 | G8 B4- | %46
w: gau- de-|te et e-|xul- ta- *||te,|gau- de-|te et e-|xul- ta-|
 B2 G2 c8 |[M:4/2][Q:1/4=176] d8 z4 d4- | d4 d4 c4 f4- | f4 d4 g2 f2 f4- | f2 ed e4 f8- | f16 | %52
w: |te quo-|* ni- am mer-|* ces ve- * *|* * * * stra|_|
 z8 z4 B2 c2 | d2 e2 f8 e4 | f12 c4 | d16 | c6 BA G8 | z8 z4 B2 c2 | d2 e2 f8 d4 | d4 d4 B8 | %60
w: mul- *|* * * ta|est in|cae-|lis, _ _ _|mul- *|* * * ta|est in cae-|
 A4 G2 A2 B2 c2 d4- | d4 B4 A8 | z8 z4 G4- | G2 A2 B2 c2 d4 e4 | f4 c4 f8 | !fermata!f16 |] %66
w: lis, mul- * * * *|* ta est,|mul-|* * * * * ta|est in cae-|lis.|
V:2
 x8 | x8 |[M:4/2][K:treble-8] z16 | z16 | B8 d8- | d4 d4 f8 | f8 z4 f4 | d2 e2 f2 e2 d2 c2 B4- | %8
w: ||||Be- a-|* ti e-|stis cum|ma- * * * * * *|
 B4 A4 d8- | d4 d4 B4 G4- | G4 F4 B4 A4 | A8 z4 d4 | d2 e2 f2 e2 d2 c2 B2 A2 | B4 B4 A4 B4 | %14
w: * le- di-|* xe- rint vo-|* bis ho- mi-|nes et|per- * * * * * * *|* se- cu- ti|
 c8 d6 c2 | B2 A2 G2 F2 G2 A2 B2 c2 | d6 d2 f8 | z4 f4 d2 e2 f2 e2 | d2 c2 B8 A4 | F2 G2 A2 B2 c8 | %20
w: vos fu- *||* e- rint,|et per- * * *|* * * se-|cu- * * * *|
 A8 B8 | z4 d6 c2 B2 A2 | G4 G4 F8 | z8 z4 G4 | A6 A2 B4 G4- | G4 G4 F8 | B8 A8 | z4 d4 d4 d4 | %28
w: ti vos|fu- * * *|* e- rint|et|di- xe- rint om-|* ne ma-|* lum|ad- ver- sum|
 c4 d4 _e6 e2 | d4 B8 c4 | B8 _e8 | d8 z4 d4 | d4 d4 c8 | z16 | z4 B8 A4 | B2 c2 d2 e2 f4 g4 | %36
w: vos, et di- xe-|rint om- ne|ma- *|lum ad-|ver- sum vos,||men- ti-|en- * * * * tes|
 f6 ed c4 c4 | d8 z8 |[M:3/2] d4 d8 | c4 B4 A4 | d4 d6 c2 | d2 e2 f8 | f8 z4 | f4 f8 | f4 d4 c4 | %45
w: pro- * * * pter|me,|gau- de-|te et e-|xul- ta- *||te,|gau- de-|te et e-|
 B4 G6 A2 | B8 A4 |[M:4/2] B16 | z16 | z16 | z16 | d12 d4 | c4 f8 f4 | f8 g8 | c8 z4 f4- | %55
w: xul- ta- *||te||||quo- ni-|am mer- ces|ve- *|stra mul-|
 f4 f4 f8 | z8 z4 B2 c2 | d2 e2 f2 d2 g4 d4 | f4 c4 d6 e2 | f8 f8 | z8 z4 B4- | B2 c2 d2 e2 f4 c4 | %62
w: * ta est,|mul- *|* * * * * ta|est in cae- *|* lis,|mul-|* * * * * ta|
 f12 e4 | d12 c2 B2 | c12 d4 | d16 |] %66
w: est in|cae- * *||lis.|
V:3
 x8 | x8 |[M:4/2][K:treble-8] z16 | z16 | z16 | z8 z8 | z16 | z16 | z16 | z16 | B8 d8- | d4 d4 f8 | %12
w: ||||||||||Be- a-|* ti e-|
 f8 z4 f4 | d2 e2 f2 e2 d2 c2 B4- | B4 A4 B4 G4 | d8 B8- | B8 A4 c4- | c4 B4 A8 | z8 z4 c4 | %19
w: stis cum|ma- * * * * * *|* le- di- xe-|rint vo-|* bis ho-|* mi- nes|et|
 A2 B2 c2 B2 A2 G2 F4- | F4 F4 G8 | A4 B8 d4- | d2 c2 B8 A4 | B6 c2 d8 | z16 | z16 | z4 B4 c6 c2 | %27
w: per- * * * * * *|* se- cu-|ti vos fu-|* * * e-|rint _ _|||et di- xe-|
 d4 B8 A2 G2 | A4 B4 G8 | F4 G4 G4 G4 | F4 B8 A4 | B2 c2 d2 e2 f4 g4 | f12 c4 | d8 z4 d4- | %34
w: rint om- * *|* ne ma-|lum ad- ver- sum|vos, men- ti-|en- * * * * tes|pro- pter|me, men-|
 d4 d4 c8 | B4 B8 A2 G2 | A4 B6 AG A4 | B8 z8 |[M:3/2] B4 B8 | A4 B4 F4 | G8 B4- | B2 G2 c8 | %42
w: * ti- en-|tes pro- * *|* pter _ _ _|me|gau- de-|te et e-|xul- ta-||
 d8 z4 | d4 d8 | c4 B4 A4 | d4 d6 c2 | d2 e2 f8 |[M:4/2] f16- | f8 z8 | z16 | z16 | B12 B4 | %52
w: te,|gau- de-|te et e-|xul- ta- *||te|_|||quo- ni-|
 A8 B8- | B4 A4 G8 | F8 z8 | B6 c2 d2 e2 f4- | f4 c4 d8- | d4 c4 B8 | A8 z8 | B6 c2 d2 e2 f4- | %60
w: am mer-|* ces ve-|stra|mul- * * * *|* ta est|_ in cae-|lis,|mul- * * * *|
 f4 e4 d6 e2 | f8 z4 F4- | F2 G2 A2 B2 c4 c4 | B4 G4 B8- | B4 A2 G2 A4 B4 | B16 |] %66
w: * ta est, _|_ mul-|* * * * * ta|est in cae-||lis.|
V:4
 x8 | x8 |[M:4/2][K:bass] z16 | z16 | z16 | z8 B,,8 | D,16 | D,8 F,8 | F,8 z4 B,4 | %9
w: |||||Be-|a-|ti e-|stis cum|
 G,2 A,2 B,2 A,2 G,2 F,2 _E,4- | E,4 D,4 B,,2 C,2 D,2 =E,2 | F,4 D,4 D,8 | z4 D,8 D,4 | %13
w: ma- * * * * * *|* le- di- * * *|* xe- rint|vo- bis|
 B,,2 C,2 D,2 E,2 F,4 G,4 | F,8 z4 B,4 | G,2 A,2 B,2 A,2 G,2 F,2 G,4- | G,4 G,4 F,4 F,4 | D,16 | %18
w: ho- * * * * mi-|nes et|per- * * * * * *|* se- cu- ti|vos|
 G,6 G,2 F,8 | z16 | z16 | z16 | B,8 C6 C2 | D4 G,8 G,4 | F,8 B,,4 _E,4 | _E,4 E,4 D,8 | z16 | %27
w: fu- e- rint||||et di- xe-|rint om- ne|ma- lum ad-|ver- sum vos,||
 z16 | z4 B,,4 C,6 C,2 | D,4 _E,8 D,2 C,2 | D,4 _E,4 C,8 | B,,4 B,4 B,4 G,4 | D,6 E,2 F,8 | %33
w: |et di- xe-|rint om- * *|* ne ma-|lum ad- ver- sum|vos, _ _|
 z4 B,8 G,4 | B,8 F,8 | B,,6 C,2 D,4 E,4 | F,16 | z16 |[M:3/2] B,,4 B,,2 C,2 D,2 E,2 | %39
w: men- ti-|en- tes|pro- * * pter|me,||gau- de- * * *|
 F,4 G,4 A,4 | B,4 B,4 G,4- | G,4 F,8 | z12 | B,,4 B,,2 C,2 D,2 E,2 | F,4 G,4 A,4 | B,4 B,4 G,4- | %46
w: * te et|e- xul- ta-|* te,||gau- de- * * *|* te et|e- xul- ta-|
 G,4 F,8 |[M:4/2] z8 z4 B,4- | B,4 B,4 A,8 | B,12 A,4 | G,8 F,8 | z4 B,,6 C,2 D,2 E,2 | %52
w: * te|quo-|* ni- am|mer- ces|ve- stra|mul- * * *|
 F,4 C,4 D8- | D4 C4 B,8- | B,4 A,2 G,2 A,4 A,4 | z4 B,8 B,4 | A,8 B,8- | B,4 A,4 G,8 | F,8 z8 | %59
w: * ta est|_ in cae-|* * * * lis,|quo- ni-|am mer-|* ces ve-|stra|
 z4 B,,6 C,2 D,2 E,2 | F,4 C,4 G,8 | z4 D,6 E,2 F,2 G,2 | A,4 D,4 C,8 | G,16 | F,12 B,,4 | B,,16 |] %66
w: mul- * * *|* ta est,|mul- * * *|* ta est|in|cae- *|lis.|

